assets/icons/custom/custom25.svg

<?xml version="1.0"?><svg xmlns="http://www.w3.org/2000/svg" width="100" height="100" viewBox="0 0 100 100"><g fill="#fff"><path d="m79.8 27.3c-0.7-3.7-3.8-6.7-7.6-7.2-2.7-0.4-5.2 0.5-7.1 2-0.6 0.5-0.5 1.3 0.2 1.7 4.6 2.4 8.5 5.9 11.5 10.1 0.4 0.6 1.3 0.6 1.7 0 1.3-1.9 1.8-4.2 1.3-6.6z m-45.2-3.5c0.6-0.3 0.7-1.2 0.2-1.7-1.9-1.6-4.4-2.4-7.1-2-3.8 0.5-6.9 3.5-7.6 7.2-0.4 2.4 0.1 4.7 1.3 6.5 0.4 0.6 1.3 0.6 1.7 0 3-4.1 6.9-7.6 11.5-10z m15.4 2.2c-14.9 0-27 12.1-27 27 0 6 2 11.6 5.3 16l-4.1 4.1c-1.6 1.6-1.6 4.1 0 5.7 0.8 0.8 1.8 1.2 2.8 1.2s2-0.4 2.8-1.2l4.1-4.1c4.5 3.3 10.1 5.3 16.1 5.3s11.6-2 16-5.3l4.1 4.1c0.9 0.8 1.9 1.2 2.9 1.2s2-0.4 2.8-1.2c1.6-1.6 1.6-4.1 0-5.7l-4.1-4.1c3.3-4.4 5.3-10 5.3-16 0-14.9-12.1-27-27-27z m-19 27c0-10.5 8.5-19 19-19s19 8.5 19 19-8.5 19-19 19-19-8.5-19-19z m22-1.2v-7.8c0-1.7-1.3-3-3-3s-3 1.3-3 3v9c0 0.8 0.3 1.6 0.9 2.1l7 7c0.6 0.6 1.4 0.9 2.1 0.9s1.5-0.3 2.1-0.9c1.2-1.2 1.2-3.1 0-4.2l-6.1-6.1z"></path></g></svg>

<svg xmlns="http://www.w3.org/2000/svg" x="0px" y="0px"
	 width="100px" height="100px" viewBox="0 0 100 100" enable-background="new 0 0 100 100" xml:space="preserve">
<g>
	<path fill="#FFFFFF" d="M79.8,27.3c-0.7-3.7-3.8-6.7-7.6-7.2c-2.7-0.4-5.2,0.5-7.101,2c-0.6,0.5-0.5,1.3,0.2,1.7
		c4.601,2.4,8.5,5.9,11.5,10.1c0.4,0.6,1.3,0.6,1.7,0C79.8,32,80.3,29.7,79.8,27.3z"/>
	<path fill="#FFFFFF" d="M34.6,23.8c0.6-0.3,0.7-1.2,0.2-1.7c-1.9-1.6-4.4-2.4-7.1-2c-3.8,0.5-6.9,3.5-7.6,7.2
		c-0.4,2.4,0.1,4.7,1.3,6.5c0.4,0.6,1.3,0.6,1.7,0C26.1,29.7,30,26.2,34.6,23.8z"/>
	<path fill="#FFFFFF" d="M50,26c-14.9,0-27,12.1-27,27c0,6,2,11.6,5.3,16l-4.1,4.1c-1.6,1.601-1.6,4.101,0,5.7C25,79.6,26,80,27,80
		s2-0.4,2.8-1.2l4.1-4.1C38.4,78,44,80,50,80s11.6-2,16-5.3l4.1,4.1C71,79.6,72,80,73,80s2-0.4,2.8-1.2c1.601-1.6,1.601-4.1,0-5.7
		L71.7,69C75,64.6,77,59,77,53C77,38.1,64.9,26,50,26z M31,53c0-10.5,8.5-19,19-19s19,8.5,19,19s-8.5,19-19,19S31,63.5,31,53z"/>
	<path fill="#FFFFFF" d="M53,51.8V44c0-1.7-1.3-3-3-3s-3,1.3-3,3v9c0,0.8,0.3,1.6,0.9,2.1l7,7C55.5,62.7,56.3,63,57,63
		s1.5-0.3,2.1-0.9c1.2-1.199,1.2-3.1,0-4.199L53,51.8z"/>
</g>
</svg>
